epam-assets/icon-sources/18/table-column.svg

<svg width="18" height="18" viewBox="0 0 18 18" fill="none" xmlns="http://www.w3.org/2000/svg">
<g id="18/table-column">
<path id="icon" fill-rule="evenodd" clip-rule="evenodd" d="M6 1.5H12C12.8284 1.5 13.5 2.17157 13.5 3V15C13.5 15.8284 12.8284 16.5 12 16.5H6C5.17157 16.5 4.5 15.8284 4.5 15V3C4.5 2.17157 5.17157 1.5 6 1.5ZM6 7.5V10.5H12V7.5H6ZM6 12V15H12V12H6ZM6 3V6H12V3H6Z" fill="#6C6F80"/>
</g>
</svg>

<svg xmlns="http://www.w3.org/2000/svg" width="18" height="18" fill="none" viewBox="0 0 18 18">
  <path fill="#6C6F80" fill-rule="evenodd" d="M6 1.5h6A1.5 1.5 0 0 1 13.5 3v12a1.5 1.5 0 0 1-1.5 1.5H6A1.5 1.5 0 0 1 4.5 15V3A1.5 1.5 0 0 1 6 1.5Zm0 6v3h6v-3H6ZM6 12v3h6v-3H6Zm0-9v3h6V3H6Z" clip-rule="evenodd"/>
</svg>
